X: 10501
T: When from Yanko dear in parting
C: Moulds
Q: "Andante Affettuoso"
B: "Man of Feeling", Gaetano Brandi, ed. v.1 p.50-51
F: http://archive.org/details/manoffeelingorge00rugg
Z: 2012 John Chambers <jc:trillian.mit.edu>
M: 2/4
L: 1/16
K: Bb
%%continueall
[|\
B2 g2 (fe) (dc) | B2 c2 d2 B2 | (ga) (bg) f2 d2 |
w: When from Yan-*ko* dear in part-ing he* say* Or-ra
(fe) (dc) ((3BcBA2) | B2 g2 (fe) (dc) | B2 c2 d2 B2 |
w: do* not* grieve*** den he stop* de* Tear just start-ing
(ed) (ef) (ge) (dc) | B2 A2 B2 z2 | aa/g/ac' b4 | AA/G/Ac B4 |
w: kiss* and* twen-*ty* times take leave,
d3 B f2 c2 | d3 B f2 c2 | f2 c2 _d2 c2 |
w: Oft my grief dear Yan-ko chid-ing, trys to smile and
_d3 =E HF2 F2 | (Bd) (ce) (df) (eg) | (fg) (fe) d2 B2 |
w: say good bye, But while* de* sti-*fled* sigh* he's* hid-ing
% p.51
(Bd) (ce) (df) (eg) | G2 g2 Hf2 z2 | (ed) (ef) (ge) (dc) |
w: still* de* tear* come* in my Eye still* de* tear* come
B2 A2 B4 | aa/g/ac' bfed |{d/}c2B2 {d/}cBcd | HB8 |]
w: in my Eye
%
W: 2. Tho' sad thoughts my poor heart panting,
W: \t I remember when we meet,
W: De tear of absence yet remaining,
W: \t Make our meeting seem more sweet;
W: As the tear drop of the morning,
W: \t Glister when the dawn appears,
W: Love my Yanko's Eyes adorning,
W: \t Smile more bright upon a tear.
%
%%center -

% Continuation of previous page.

%%sep 2 1 500
%%sep 1 1 500

